assets/images/coffee.svg

<svg fill="none" height="40" viewBox="0 0 25 35" width="30" xmlns="http://www.w3.org/2000/svg"><g fill="#000"><path d="m22.0672 8.1281-.0235-.01384-.0544-.0166c.0219.01848.0493.02919.0779.03044z"/><path d="m22.4111 10.5781-.0263.0074z"/><path d="m22.0735 8.11128c-.0027-.00035-.0054-.00099-.008-.0019-.0001.00177-.0001.00355 0 .00532.003-.00038.0057-.00157.008-.00342z"/><path d="m22.3877 10.5647.0397-.0226.0147-.0083.0134-.0143c-.0252.0109-.0481.0262-.0678.0452z"/><path d="m22.1334 8.1762-.0387-.0369-.0263-.0143c.0141.02493.0374.04332.065.0512z"/><path d="m12.3836 31.9453c-.031.0134-.0581.0343-.0789.0609l.0244-.0157c.0166-.0152.0402-.0332.0545-.0452z"/><path d="m18.0497 30.8309c0-.0351-.0171-.0286-.0129.0959 0-.0101.0041-.0203.006-.0299.0023-.0222.0041-.0439.0069-.066z"/><path d="m17.4617 31.9453c-.031.0134-.0581.0343-.0789.0609l.0245-.0157c.0166-.0152.0401-.0332.0544-.0452z"/><path d="m8.39845 32.2145c-.02349-.0204-.05226-.0338-.08302-.0387.02491.012.04981.024.06642.0332z"/><path d="m7.50541 31.3533c-.00368-.0363-.01483-.0715-.03275-.1033.01269.0331.02332.067.03182.1015z"/></g><path d="m13.5278 15.9814c-1.2315.5272-2.6291 1.125-4.44044 1.125-.75773-.0016-1.51178-.1055-2.24166-.3091l1.25275 12.8619c.04434.5376.28924 1.0388.68607 1.4042.39682.3654.91654.5682 1.45598.5681 0 0 1.7762.0922 2.3689.0922.638 0 2.5507-.0922 2.5507-.0922.5394 0 1.059-.2029 1.4557-.5682.3967-.3654.6416-.8666.6859-1.4041l1.3418-14.2129c-.5996-.2048-1.2048-.3408-1.887-.3408-1.1798-.0005-2.1305.4059-3.2287.8759z" fill="#fd0"/><path d="m2.96582 10.5039.02122.0198.01384.0083c-.01066-.0105-.02241-.02-.03506-.0281z" fill="#000"/><path d="m24.4376 9.31226-.1886-.95155c-.1693-.85377-.5535-1.66049-1.4299-1.96907-.2809-.0987-.5996-.14114-.815-.34547s-.2791-.52167-.3289-.81594c-.0922-.54013-.1789-1.08071-.2735-1.6199-.0816-.46356-.1462-.98431-.3589-1.40958-.2767-.57102-.851-.90496-1.422-1.1259-.2926-.109228-.5912-.201628-.8943-.276749-1.4267-.376378-2.9266-.514752-4.3943-.593625-1.7617-.097207-3.528-.06792-5.28547.087637-1.3081.119001-2.68584.262911-3.9289.715397-.45433.16559-.9225.36438-1.26797.71539-.42389.43127-.56226 1.09823-.25276 1.63604.22001.38192.5927.65175.98799.83025.51488.23 1.0526.40501 1.60422.52213 1.53595.33948 3.12679.47278 4.69599.52951 1.7392.0702 3.4812.01331 5.2121-.1702.428-.04704.8553-.10347 1.2818-.16927.5023-.07703.8247-.73385.6766-1.19141-.1771-.54703-.6531-.75921-1.1914-.67665-.0793.01246-.1582.02399-.2375.03552l-.0572.0083c-.1824.02307-.3647.04459-.5471.06458-.3766.04059-.7543.0738-1.1328.09963-.8478.05904-1.6978.08625-2.5475.08763-.8348 0-1.6701-.02352-2.50314-.07841-.38007-.02491-.75922-.05658-1.13744-.09502-.17205-.01798-.34363-.03689-.51521-.05811l-.16329-.02076-.03551-.00507-.16928-.02445c-.34593-.05212-.69187-.11208-1.03412-.1845-.03453-.00766-.06542-.02687-.08756-.05446s-.03421-.06191-.03421-.09729c0-.03537.01207-.06969.03421-.09728s.05303-.04681.08756-.05447h.00646c.29658-.06319.59547-.11715.89528-.1642.09994-.01568.20018-.03106.30074-.04613h.00276c.18773-.01245.37638-.04612.56319-.06826 1.62526-.16906 3.26026-.22669 4.89336-.17251.7929.02307 1.5853.06965 2.3745.14991.1697.01753.3386.03598.5074.05673.0646.00784.1296.01707.1946.02491l.131.01891c.3819.05689.7618.12592 1.1398.2071.5599.12177 1.279.16144 1.5281.7749.0793.19464.1153.41097.1591.6153l.0558.2606c.0015.00468.0025.00946.0032.0143.132.615.264 1.22999.3963 1.84499.0096.04543.0099.09237.0006.1379-.0092.04552-.0278.08865-.0544.12669-.0267.03804-.0609.07018-.1005.09442-.0397.02423-.0839.04004-.1299.04643h-.0037l-.0807.01107-.0798.01061c-.2527.0329-.5058.06365-.7592.09225-.4991.05688-.9989.10608-1.4995.14759-.9948.08272-1.9915.137-2.9903.16283-.5089.01352-1.0176.01983-1.5262.01891-2.0245-.0016-4.04711-.11926-6.05806-.3524-.21771-.02583-.43541-.0535-.65312-.08164.16881.02168-.12269-.0166-.18173-.0249-.13838-.01938-.27675-.03952-.41513-.06043-.46447-.06965-.92618-.15544-1.38973-.23062-.56042-.09225-1.09639-.04613-1.6033.23062-.4161.2277-.75287.57686-.96539 1.00091-.21863.45202-.28367.94417-.38145 1.42987-.097786.48569-.249998 1.00828-.192342 1.5069.124075 1.0761.876372 1.9506 1.958452 2.1462 1.01798.1845 2.04148.3339 3.06776.4612 4.03144.4938 8.10424.5528 12.14834.1762.3293-.0307.6582-.0643.9866-.1005.1026-.0113.2064.0005.3038.0346.0974.034.186.0894.2592.1621s.1293.1609.164.258c.0348.0972.0473.2009.0368.3036l-.1024.9953c-.2063 2.0114-.4126 4.0226-.619 6.0336-.2152 2.1119-.4319 4.2236-.6499 6.3352-.0615.5947-.123 1.1893-.1845 1.7837-.059.5853-.0673 1.1891-.1785 1.7675-.1752.9096-.791 1.4681-1.6895 1.6725-.8232.1873-1.6641.2856-2.5083.2933-.9359.0051-1.8713-.0364-2.8071-.0314-.9991.0056-2.22278-.0867-2.99399-.8302-.67757-.6531-.7712-1.6757-.86345-2.5599-.123-1.1707-.24492-2.3412-.36577-3.5115l-.67803-6.5077-.43865-4.2108c-.00738-.0696-.01476-.1383-.02168-.2084-.05258-.5023-.4082-.994-.96862-.9687-.47969.0213-1.02489.429-.96861.9687l.32517 3.1217.6725 6.4574c.19157 1.8343.38268 3.6688.57333 5.5036.0369.3515.07149.7039.11024 1.0554.21079 1.9206 1.67755 2.9556 3.49395 3.2472 1.06087.1706 2.14761.2057 3.22411.2232 1.3801.0221 2.7739.0752 4.1314-.1748 2.0115-.369 3.5207-1.7122 3.7361-3.7956.0615-.6015.123-1.2031.1845-1.8049.2045-1.9901.4087-3.9804.6125-5.9708l.667-6.5036.3058-2.9806c.0152-.1478.0777-.2867.178-.3963s.2333-.1839.3792-.2121c.5752-.1121 1.125-.3035 1.5341-.7412.6513-.6969.7809-1.6056.5507-2.52164zm-21.63662.64298c.00877-.00415-.00738.07106-.01429.10606-.00139-.053.00138-.10006.01429-.10606zm.05582.43176c.00461-.0033.01844.0152.03274.0373-.02168-.0203-.03551-.0355-.03321-.0373zm.05488.0724c.01984.0337.03045.0549 0 0zm.11024.0895h.00277c0 .0032.00507.0064.00692.0097-.00306-.0036-.00646-.0068-.01015-.0097zm19.30408-.1338c-.2066.1965-.5179.2878-.8256.3335-3.4501.512-6.9505.7712-10.4385.6568-2.49625-.0853-4.96623-.3625-7.43759-.7117-.24216-.0341-.5046-.0784-.67111-.2569-.31365-.3367-.1596-1.01476-.07796-1.42158.07473-.37269.21771-.86945.66097-.9225.69187-.08117 1.49537.2108 2.17986.31458.82409.12576 1.65126.22647 2.48151.30211 3.54332.32288 7.14612.2726 10.67372-.19972.643-.0864 1.2836-.1868 1.922-.30119.5687-.10194 1.1993-.29335 1.5429.29566.2357.40128.2671.93817.2306 1.39158-.0112.19756-.0975.38336-.2412.51936z" fill="#000"/></svg>

<svg data-v-7970f380="" width="30" height="40" viewBox="0 0 25 35" fill="none" xmlns="http://www.w3.org/2000/svg"><path d="M22.0672 8.1281L22.0437 8.11426L21.9893 8.09766C22.0112 8.11614 22.0386 8.12685 22.0672 8.1281Z" fill="black"></path> <path d="M22.4111 10.5781L22.3848 10.5855L22.4111 10.5781Z" fill="black"></path> <path d="M22.0735 8.11128C22.0708 8.11093 22.0681 8.11029 22.0655 8.10938C22.0654 8.11115 22.0654 8.11293 22.0655 8.1147C22.0685 8.11432 22.0712 8.11313 22.0735 8.11128Z" fill="black"></path> <path d="M22.3877 10.5647L22.4274 10.5421L22.4421 10.5338L22.4555 10.5195C22.4303 10.5304 22.4074 10.5457 22.3877 10.5647Z" fill="black"></path> <path d="M22.1334 8.1762L22.0947 8.1393L22.0684 8.125C22.0825 8.14993 22.1058 8.16832 22.1334 8.1762Z" fill="black"></path> <path d="M12.3836 31.9453C12.3526 31.9587 12.3255 31.9796 12.3047 32.0062L12.3291 31.9905C12.3457 31.9753 12.3693 31.9573 12.3836 31.9453Z" fill="black"></path> <path d="M18.0497 30.8309C18.0497 30.7958 18.0326 30.8023 18.0368 30.9268C18.0368 30.9167 18.0409 30.9065 18.0428 30.8969C18.0451 30.8747 18.0469 30.853 18.0497 30.8309Z" fill="black"></path> <path d="M17.4617 31.9453C17.4307 31.9587 17.4036 31.9796 17.3828 32.0062L17.4073 31.9905C17.4239 31.9753 17.4474 31.9573 17.4617 31.9453Z" fill="black"></path> <path d="M8.39845 32.2145C8.37496 32.1941 8.34619 32.1807 8.31543 32.1758C8.34034 32.1878 8.36524 32.1998 8.38185 32.209L8.39845 32.2145Z" fill="black"></path> <path d="M7.50541 31.3533C7.50173 31.317 7.49058 31.2818 7.47266 31.25C7.48535 31.2831 7.49598 31.317 7.50448 31.3515L7.50541 31.3533Z" fill="black"></path> <path d="M13.5278 15.9814C12.2963 16.5086 10.8987 17.1064 9.08736 17.1064C8.32963 17.1048 7.57558 17.0009 6.8457 16.7973L8.09845 29.6592C8.14279 30.1968 8.38769 30.698 8.78452 31.0634C9.18134 31.4288 9.70106 31.6316 10.2405 31.6315C10.2405 31.6315 12.0167 31.7237 12.6094 31.7237C13.2474 31.7237 15.1601 31.6315 15.1601 31.6315C15.6995 31.6315 16.2191 31.4286 16.6158 31.0633C17.0125 30.6979 17.2574 30.1967 17.3017 29.6592L18.6435 15.4463C18.0439 15.2415 17.4387 15.1055 16.7565 15.1055C15.5767 15.105 14.626 15.5114 13.5278 15.9814Z" fill="#FFDD00"></path> <path d="M2.96582 10.5039L2.98704 10.5237L3.00088 10.532C2.99022 10.5215 2.97847 10.512 2.96582 10.5039Z" fill="black"></path> <path d="M24.4376 9.31226L24.249 8.36071C24.0797 7.50694 23.6955 6.70022 22.8191 6.39164C22.5382 6.29294 22.2195 6.2505 22.0041 6.04617C21.7887 5.84184 21.725 5.5245 21.6752 5.23023C21.583 4.6901 21.4963 4.14952 21.4017 3.61033C21.3201 3.14677 21.2555 2.62602 21.0428 2.20075C20.7661 1.62973 20.1918 1.29579 19.6208 1.07485C19.3282 0.965622 19.0296 0.873222 18.7265 0.798101C17.2998 0.421723 15.7999 0.283349 14.3322 0.204476C12.5705 0.107269 10.8042 0.136556 9.04673 0.292113C7.73863 0.411114 6.36089 0.555024 5.11783 1.00751C4.6635 1.1731 4.19533 1.37189 3.84986 1.7229C3.42597 2.15417 3.2876 2.82113 3.5971 3.35894C3.81711 3.74086 4.1898 4.01069 4.58509 4.18919C5.09997 4.41919 5.63769 4.5942 6.18931 4.71132C7.72526 5.0508 9.3161 5.1841 10.8853 5.24083C12.6245 5.31103 14.3665 5.25414 16.0974 5.07063C16.5254 5.02359 16.9527 4.96716 17.3792 4.90136C17.8815 4.82433 18.2039 4.16751 18.0558 3.70995C17.8787 3.16292 17.4027 2.95074 16.8644 3.0333C16.7851 3.04576 16.7062 3.05729 16.6269 3.06882L16.5697 3.07712C16.3873 3.10019 16.205 3.12171 16.0226 3.1417C15.646 3.18229 15.2683 3.2155 14.8898 3.24133C14.042 3.30037 13.192 3.32758 12.3423 3.32896C11.5075 3.32896 10.6722 3.30544 9.83916 3.25055C9.45909 3.22564 9.07994 3.19397 8.70172 3.15553C8.52967 3.13755 8.35809 3.11864 8.18651 3.09742L8.02322 3.07666L7.98771 3.07159L7.81843 3.04714C7.4725 2.99502 7.12656 2.93506 6.78431 2.86264C6.74978 2.85498 6.71889 2.83577 6.69675 2.80818C6.67461 2.78059 6.66254 2.74627 6.66254 2.71089C6.66254 2.67552 6.67461 2.6412 6.69675 2.61361C6.71889 2.58602 6.74978 2.5668 6.78431 2.55914H6.79077C7.08735 2.49595 7.38624 2.44199 7.68605 2.39494C7.78599 2.37926 7.88623 2.36388 7.98679 2.34881H7.98955C8.17728 2.33636 8.36593 2.30269 8.55274 2.28055C10.178 2.11149 11.813 2.05386 13.4461 2.10804C14.239 2.13111 15.0314 2.17769 15.8206 2.25795C15.9903 2.27548 16.1592 2.29393 16.328 2.31468C16.3926 2.32252 16.4576 2.33175 16.5226 2.33959L16.6536 2.3585C17.0355 2.41539 17.4154 2.48442 17.7934 2.5656C18.3533 2.68737 19.0724 2.72704 19.3215 3.3405C19.4008 3.53514 19.4368 3.75147 19.4806 3.9558L19.5364 4.2164C19.5379 4.22108 19.5389 4.22586 19.5396 4.2307C19.6716 4.8457 19.8036 5.46069 19.9359 6.07569C19.9455 6.12112 19.9458 6.16806 19.9365 6.21359C19.9273 6.25911 19.9087 6.30224 19.8821 6.34028C19.8554 6.37832 19.8212 6.41046 19.7816 6.4347C19.7419 6.45893 19.6977 6.47474 19.6517 6.48113H19.648L19.5673 6.4922L19.4875 6.50281C19.2348 6.53571 18.9817 6.56646 18.7283 6.59506C18.2292 6.65194 17.7294 6.70114 17.2288 6.74265C16.234 6.82537 15.2373 6.87965 14.2385 6.90548C13.7296 6.919 13.2209 6.92531 12.7123 6.92439C10.6878 6.92279 8.66519 6.80513 6.65424 6.57199C6.43653 6.54616 6.21883 6.51849 6.00112 6.49035C6.16993 6.51203 5.87843 6.47375 5.81939 6.46545C5.68101 6.44607 5.54264 6.42593 5.40426 6.40502C4.93979 6.33537 4.47808 6.24958 4.01453 6.1744C3.45411 6.08215 2.91814 6.12827 2.41123 6.40502C1.99513 6.63272 1.65836 6.98188 1.44584 7.40593C1.22721 7.85795 1.16217 8.3501 1.06439 8.8358C0.966604 9.32149 0.814392 9.84408 0.872048 10.3427C0.996123 11.4188 1.74842 12.2933 2.8305 12.4889C3.84848 12.6734 4.87198 12.8228 5.89826 12.9501C9.9297 13.4439 14.0025 13.5029 18.0466 13.1263C18.3759 13.0956 18.7048 13.062 19.0332 13.0258C19.1358 13.0145 19.2396 13.0263 19.337 13.0604C19.4344 13.0944 19.523 13.1498 19.5962 13.2225C19.6694 13.2952 19.7255 13.3834 19.7602 13.4805C19.795 13.5777 19.8075 13.6814 19.797 13.7841L19.6946 14.7794C19.4883 16.7908 19.282 18.802 19.0756 20.813C18.8604 22.9249 18.6437 25.0366 18.4257 27.1482C18.3642 27.7429 18.3027 28.3375 18.2412 28.9319C18.1822 29.5172 18.1739 30.121 18.0627 30.6994C17.8875 31.609 17.2717 32.1675 16.3732 32.3719C15.55 32.5592 14.7091 32.6575 13.8649 32.6652C12.929 32.6703 11.9936 32.6288 11.0578 32.6338C10.0587 32.6394 8.83502 32.5471 8.06381 31.8036C7.38624 31.1505 7.29261 30.1279 7.20036 29.2437C7.07736 28.073 6.95544 26.9025 6.83459 25.7322L6.15656 19.2245L5.71791 15.0137C5.71053 14.9441 5.70315 14.8754 5.69623 14.8053C5.64365 14.303 5.28803 13.8113 4.72761 13.8366C4.24792 13.8579 3.70272 14.2656 3.759 14.8053L4.08417 17.927L4.75667 24.3844C4.94824 26.2187 5.13935 28.0532 5.33 29.888C5.3669 30.2395 5.40149 30.5919 5.44024 30.9434C5.65103 32.864 7.11779 33.899 8.93419 34.1906C9.99506 34.3612 11.0818 34.3963 12.1583 34.4138C13.5384 34.4359 14.9322 34.489 16.2897 34.239C18.3012 33.87 19.8104 32.5268 20.0258 30.4434C20.0873 29.8419 20.1488 29.2403 20.2103 28.6385C20.4148 26.6484 20.619 24.6581 20.8228 22.6677L21.4898 16.1641L21.7956 13.1835C21.8108 13.0357 21.8733 12.8968 21.9736 12.7872C22.0739 12.6776 22.2069 12.6033 22.3528 12.5751C22.928 12.463 23.4778 12.2716 23.8869 11.8339C24.5382 11.137 24.6678 10.2283 24.4376 9.31226ZM2.80098 9.95524C2.80975 9.95109 2.7936 10.0263 2.78669 10.0613C2.7853 10.0083 2.78807 9.96124 2.80098 9.95524ZM2.8568 10.387C2.86141 10.3837 2.87524 10.4022 2.88954 10.4243C2.86786 10.404 2.85403 10.3888 2.85633 10.387H2.8568ZM2.91168 10.4594C2.93152 10.4931 2.94213 10.5143 2.91168 10.4594V10.4594ZM3.02192 10.5489H3.02469C3.02469 10.5521 3.02976 10.5553 3.03161 10.5586C3.02855 10.555 3.02515 10.5518 3.02146 10.5489H3.02192ZM22.326 10.4151C22.1194 10.6116 21.8081 10.7029 21.5004 10.7486C18.0503 11.2606 14.5499 11.5198 11.0619 11.4054C8.56565 11.3201 6.09567 11.0429 3.62431 10.6937C3.38215 10.6596 3.11971 10.6153 2.9532 10.4368C2.63955 10.1001 2.7936 9.42204 2.87524 9.01522C2.94997 8.64253 3.09295 8.14577 3.53621 8.09272C4.22808 8.01155 5.03158 8.30352 5.71607 8.4073C6.54016 8.53306 7.36733 8.63377 8.19758 8.70941C11.7409 9.03229 15.3437 8.98201 18.8713 8.50969C19.5143 8.42329 20.1549 8.32289 20.7933 8.2085C21.362 8.10656 21.9926 7.91515 22.3362 8.50416C22.5719 8.90544 22.6033 9.44233 22.5668 9.89574C22.5556 10.0933 22.4693 10.2791 22.3256 10.4151H22.326Z" fill="black"></path></svg>
